svgs/sharp-light/ankh.svg

<svg xmlns="http://www.w3.org/2000/svg" viewBox="0 0 320 512"><!--! Font Awesome Pro 6.6.0 by @fontawesome - https://fontawesome.com License - https://fontawesome.com/license (Commercial License) Copyright 2024 Fonticons, Inc. --><path d="M64 128c0 48.2 25.8 88.6 55 118.7c14.4 14.8 28.8 26.4 39.7 34.2l1.3 .9 1.3-.9c10.9-7.8 25.3-19.3 39.7-34.2c29.2-30.1 55-70.5 55-118.7c0-53-43-96-96-96s-96 43-96 96zm52.1 160C79.1 255.9 32 200.8 32 128C32 57.3 89.3 0 160 0s128 57.3 128 128c0 72.8-47.1 127.9-84.1 160L304 288l16 0 0 32-16 0-128 0 0 176 0 16-32 0 0-16 0-176L16 320 0 320l0-32 16 0 100.1 0z"/></svg>

<svg xmlns="http://www.w3.org/2000/svg" viewBox="0 0 320 512"><!--! Font Awesome Pro 6.4.0 by @fontawesome - https://fontawesome.com License - https://fontawesome.com/license (Commercial License) Copyright 2023 Fonticons, Inc. --><path d="M64 128c0 48.2 25.8 88.6 55 118.7c14.4 14.8 28.8 26.4 39.7 34.2l1.3 .9 1.3-.9c10.9-7.8 25.3-19.3 39.7-34.2c29.2-30.1 55-70.5 55-118.7c0-53-43-96-96-96s-96 43-96 96zm52.1 160C79.1 255.9 32 200.8 32 128C32 57.3 89.3 0 160 0s128 57.3 128 128c0 72.8-47.1 127.9-84.1 160H304h16v32H304 176V496v16H144V496 320H16 0V288H16 116.1z"/></svg>
